icons/linear-new-office-identification-card.svg

<svg xmlns="http://www.w3.org/2000/svg" width="32px" height="32px" viewBox="0 0 32 32" version="1.1">
    <title>linear-new-office-identification-card</title>
    <g id="linear-new-office-identification-card" stroke-width="1" fill-rule="evenodd">
        <path d="M29,5 C29.5522847,5 30,5.44771525 30,6 L30,26 C30,26.5522847 29.5522847,27 29,27 L3,27 C2.44771525,27 2,26.5522847 2,26 L2,6 C2,5.44771525 2.44771525,5 3,5 L29,5 Z M28,7 L4,7 L4,25 L28,25 L28,7 Z M13,18 C14.6568542,18 16,19.3431458 16,21 L16,22 C16,22.5522847 15.5522847,23 15,23 C14.4477153,23 14,22.5522847 14,22 L14,21 C14,20.4477153 13.5522847,20 13,20 L9,20 C8.44771525,20 8,20.4477153 8,21 L8,22 C8,22.5522847 7.55228475,23 7,23 C6.44771525,23 6,22.5522847 6,22 L6,21 C6,19.3431458 7.34314575,18 9,18 L13,18 Z M25,18 C25.5522847,18 26,18.4477153 26,19 C26,19.5522847 25.5522847,20 25,20 L19,20 C18.4477153,20 18,19.5522847 18,19 C18,18.4477153 18.4477153,18 19,18 L25,18 Z M11,9 C13.209139,9 15,10.790861 15,13 C15,15.209139 13.209139,17 11,17 C8.790861,17 7,15.209139 7,13 C7,10.790861 8.790861,9 11,9 Z M11,11 C9.8954305,11 9,11.8954305 9,13 C9,14.1045695 9.8954305,15 11,15 C12.1045695,15 13,14.1045695 13,13 C13,11.8954305 12.1045695,11 11,11 Z M25,12 C25.5522847,12 26,12.4477153 26,13 C26,13.5522847 25.5522847,14 25,14 L19,14 C18.4477153,14 18,13.5522847 18,13 C18,12.4477153 18.4477153,12 19,12 L25,12 Z" id="&#24418;&#29366;" fill-rule="nonzero" />
    </g>
</svg>

<svg xmlns="http://www.w3.org/2000/svg" viewBox="0 0 32 32"><path fill="currentColor" d="M29 5a1 1 0 0 1 1 1v20a1 1 0 0 1-1 1H3a1 1 0 0 1-1-1V6a1 1 0 0 1 1-1zm-1 2H4v18h24zM13 18a3 3 0 0 1 3 3v1a1 1 0 0 1-2 0v-1a1 1 0 0 0-1-1H9a1 1 0 0 0-1 1v1a1 1 0 0 1-2 0v-1a3 3 0 0 1 3-3zm12 0a1 1 0 0 1 0 2h-6a1 1 0 0 1 0-2zM11 9a4 4 0 1 1 0 8 4 4 0 0 1 0-8m0 2a2 2 0 1 0 0 4 2 2 0 0 0 0-4m14 1a1 1 0 0 1 0 2h-6a1 1 0 0 1 0-2z"/></svg>
